X: 647
T: Aden Y Fran Ddu
R: polka
M: 2/4
K: Dmajor
AG|:FA Ad|f2 ef|gf ed|dc BA|
AB GA|FG EF|DD FA|1 d2 AG:|2 d2 fg||
ae ef|g2 fg|ae ef|g2 fg|
ae (3eee|ae (3eee|ag fe|dc BA|
FA Ad|f2 ef|gf ed|dc BA|
AB GA|FG EF|DD FA|d2||

